X:1
T:Für den König
C:Albert Frey
M:4/4
L:1/8
K:Amaj
%%score (T1 T2) (B1 B2)
V:T1           clef=treble-8  name="v1"   snm="v1"
%V:T2           clef=treble-8  name="v2"   snm="v2"
%V:B1  middle=D, clef=bass      name="Basso I"    snm="B.I"  transpose=-24
%V:B2  middle=D, clef=bass      name="Basso II"   snm="B.II" transpose=-24
%            End of header, start of tune body:
[V:T1]  C3/2E/ | F2F4 B,3/2C/ | C6 C3/2E/ |
[V:T1]  F2 F4 B,3/2C/ | C4 C3/2E/ F2 F4 G3/2E/ |
[V:T1]  A6 A3/2G/ | F2 F3/2E/ D2 D3/2C/ | B,6 C3/2E/ |
[V:T1]  F2 F4 B,3/2C/ | C6 C3/2E/ | F2 F4 B,3/2C/
[V:T1]  C6 C3/2E/ | F2 F4 G3/2E/ | A6 A3/2G/ |
[V:T1]  F2 F3/2E/ D2 D3/2C/ | B,6 E3/2G/ || A2A4 G3/2E/ |
[V:T1]  A2 A4 A3/2G/ F2 F3/2E/ D2 D3/2C/ | C6 C3/2G/ |
[V:T1]  A2A4 B3/2E/ | c2 c4 c3/2B/ | A2 A3/2G/ F2 F3/2 E/ | E6 :|]
[V:T1]  C3/2 E/ | F2 F4 B,3/2A,/ | A,6 |]


